X:1
T:Hold the Fort
T:Hold the Fort
T:PUBLIC DOMAIN
Z:PUBLIC DOMAIN
%%score 1 ( 2 3 )
L:1/8
Q:1/4=80
M:2/4
K:D
V:1 treble nm="Soprano"
V:2 bass nm="Bass"
V:3 bass 
V:1
 [FA]3/2 [GB]/ [FA] [DF] | [Fd]3/2 [Ge]/ [Fd] [GB] | [FA]3/2 [GB]/ [FA] [DF] | [CE]4 | %4
w: 1.~Ho, my com- rades,|see the sig- nal,|wav- ing in the|sky!|
w: 2.~See the might- y|host ad- vanc- ing,|Sa- tan lead- ing|on,|
w: 3.~See the glor- ious|ban- ner wav- ing,|hear the trum- pet|blow!|
w: 4.~Fierce and long the|bat- tle ra- ges,|but our help is|near,|
 [FA]3/2 [GB]/ [FA] [DF] | [Fd]3/2 [Ge]/ [Fd] [FB] | [Ec]3/2 [Fd]/ [Ec] [DB] | [CA]4 || %8
w: Re- in- force- ments|now ap- pear- ing,|vic- to- ry is|nigh.|
w: Might- y ones a-|round us fall- ing,|cour- age al- most|gone!|
w: In our Lead- er’s|Name we’ll tri- umph|o- ver eve- ry|foe.|
w: On- ward comes our|great Com- mand- er,|cheer, my com- rades,|cheer!|
"^Refrain" [Fd]3/2 [Fd]/ [Fd]3/2 [Fd]/ | [Fd] [FA] [DF] [FA] | [GB]3/2 [GB]/ [GB] [Gd] | [Ec]4 | %12
w: “Hold the fort, for|I am com- ing,”|Je- sus sig- nals|still;|
w: ||||
w: ||||
w: ||||
 [Fd]3/2 [Fd]/ [Fd] [Fd] | [Ge] [Gd] [Gc] [GB] | [FA] [FA] [GB]3/2 [Gc]/ | [Fd]4 |] %16
w: Wave the an- swer|back to heav- en,|“By Thy grace we|will.”|
w: ||||
w: ||||
w: ||||
V:2
 [D,D]3/2 [D,D]/ [D,D] [D,A,] | [D,A,]3/2 [D,A,]/ [D,A,] [D,D] | [D,D]3/2 [D,D]/ [D,D] [D,A,] | %3
 A,4 | [D,D]3/2 [D,D]/ [D,D] [D,A,] | [D,A,]3/2 [D,A,]/ [D,A,] [D,D] | %6
 [E,A,]3/2 [E,A,]/ [E,A,] [E,^G,] | [A,,A,]4 || [D,A,]3/2 [D,A,]/ [D,A,]3/2 [D,A,]/ | %9
 [D,A,] [D,D] [D,D] [D,D] | [G,D]3/2 [G,D]/ [G,D] [G,B,] | [A,E]4 | %12
 [D,A,]3/2 [D,A,]/ [D,A,] [D,A,] | [G,B,] [G,B,] [G,C] [G,D] | [A,D] [A,D] [A,C]3/2 [A,E]/ | %15
 [D,D]4 |] %16
V:3
 x4 | x4 | x4 | A,4 | x4 | x4 | x4 | x4 || x4 | x4 | x4 | x4 | x4 | x4 | x4 | x4 |] %16

